X:3448
T:Corri-Corri
R:Danza
C:Tradicional
S:Música Tradicional Asturiana, (C) Tello & Tito. Asturies, 2001.
S:http://pagina.de/MusTradAst <telloytito@asturies.org>
O:Arenas (Cabrales)
A:Asturies
Z:ByD IDEA
M:2/4
L:1/4
Q:1/4=120
K:C
|C D|_E3/2 D/|C _E|D3/2 D/|D D|_E3/2 D/|C B,|C3/2 D/|
|_E D|_E3/2 D/|C _E|D3/2 D/|D D|_E3/2 D/|C B,|C2|C2|z2|
|C C|D3/2 D/|C B,|C3/2 D/|E G|G3/2 G/|A A/G/|G3/2 F/|
|E E/D/|D3/2 D/|C B,|C3/2 D/|E G|G3/2 G/|A A/G/|G3/2 F/|
|E E/D/|D E/D/|C C|C2|C2|


